;Generated with Cura_SteamEngine 13.06.4-dev
M109 S210     ;Heatup to 210C
G21           ;metric values
G90           ;absolute positioning
G28           ;Home
G1 Z15.0 F300 ;move the platform down 15mm
G92 E0        ;zero the extruded length
G1 F200 E5    ;extrude 5mm of feed stock
G92 E0        ;zero the extruded length again

;total_layers=127
;LAYER:0
M107
;LAYER:1
;LAYER:2
M106 S255
;LAYER:3
G1 F2700 E-0.00400
G0 F21000 X88.52 Y86.97 Z0.60
;TYPE:WALL-INNER
G1 F2700 E0.00000
G1 F5220 X92.05 Y84.40 E0.02664
G1 X96.04 Y82.63 E0.05327
G1 X100.32 Y81.72 E0.07993
G1 X104.68 Y81.72 E0.10655
G1 X108.96 Y82.63 E0.13320
G1 X112.95 Y84.40 E0.15983
G1 X116.48 Y86.97 E0.18647
G1 X119.40 Y90.21 E0.21309
G1 X121.59 Y94.00 E0.23976
G1 X122.94 Y98.15 E0.26638
G1 X123.40 Y102.50 E0.29303
G1 X122.94 Y106.85 E0.31967
G1 X121.59 Y111.00 E0.34629
G1 X119.40 Y114.79 E0.37296
G1 X116.48 Y118.03 E0.39958
G1 X112.95 Y120.60 E0.42622
G1 X108.96 Y122.37 E0.45285
G1 X104.68 Y123.28 E0.47950
G1 X100.32 Y123.28 E0.50612
G1 X96.04 Y122.37 E0.53278
G1 X92.05 Y120.60 E0.55941
G1 X88.52 Y118.03 E0.58605
G1 X85.60 Y114.79 E0.61267
G1 X83.41 Y111.00 E0.63933
G1 X82.06 Y106.85 E0.66596
G1 X81.60 Y102.50 E0.69260
G1 X82.06 Y98.15 E0.71924
G1 X83.41 Y94.00 E0.74587
G1 X85.60 Y90.21 E0.77254
G1 X88.52 Y86.97 E0.79915
G0 F21000 X89.07 Y87.54
G1 F5220 X86.25 Y90.67 E0.82484
G1 X86.21 Y90.72 E0.82522
G1 X85.56 Y91.85 E0.83319
G1 X85.69 Y92.33 E0.83622
G1 X92.36 Y96.19 E0.88323
G1 X92.85 Y96.06 E0.88626
G1 X93.08 Y95.65 E0.88910
G1 X94.71 Y93.84 E0.90396
G1 X96.68 Y92.41 E0.91879
G1 X98.90 Y91.42 E0.93363
G1 X101.28 Y90.92 E0.94849
G1 X101.75 Y90.92 E0.95132
G1 X102.10 Y90.57 E0.95436
G1 X102.10 Y82.86 E1.00136
G1 X101.75 Y82.51 E1.00439
G1 X100.37 Y82.51 E1.01281
G1 X96.32 Y83.37 E1.03805
G1 X96.26 Y83.39 E1.03843
G1 X92.42 Y85.11 E1.06406
G1 X89.07 Y87.54 E1.08930
G0 F21000 X86.22 Y90.72
G0 X85.58 Y91.86
G0 X85.29 Y93.03
G1 F5220 X84.81 Y93.15 E1.09233
G1 X84.12 Y94.35 E1.10076
G1 X82.83 Y98.35 E1.12637
G1 X82.40 Y102.47 E1.15161
G1 X82.40 Y102.53 E1.15200
G1 X82.85 Y106.71 E1.17762
G1 X84.15 Y110.70 E1.20324
G1 X84.81 Y111.85 E1.21128
G1 X85.29 Y111.97 E1.21431
G1 X91.96 Y108.12 E1.26132
G1 X92.09 Y107.64 E1.26435
G1 X91.86 Y107.24 E1.26717
G1 X91.11 Y104.92 E1.28204
G1 X90.85 Y102.50 E1.29688
G1 X91.11 Y100.08 E1.31171
G1 X91.86 Y97.76 E1.32658
G1 X92.09 Y97.36 E1.32941
G1 X91.96 Y96.88 E1.33244
G1 X85.29 Y93.03 E1.37944
G0 F21000 X91.95 Y96.89
G0 X92.78 Y97.75
G1 F5220 X92.57 Y98.11 E1.38195
G1 X91.89 Y100.21 E1.39540
G1 X91.65 Y102.47 E1.40924
G1 X91.65 Y102.53 E1.40962
G1 X91.89 Y104.79 E1.42346
G1 X92.60 Y106.94 E1.43729
G1 X92.78 Y107.24 E1.43942
G1 X93.26 Y107.37 E1.44245
G1 X99.18 Y103.96 E1.48414
G1 X99.31 Y103.49 E1.48708
G1 X99.22 Y103.31 E1.48834
G1 X99.22 Y101.69 E1.49823
G1 X99.31 Y101.51 E1.49948
G1 X99.18 Y101.04 E1.50242
G1 X93.26 Y97.62 E1.54411
G1 X92.78 Y97.75 E1.54715
G0 F21000 X93.66 Y96.93
G1 F5220 X99.54 Y100.33 E1.58857
G1 X99.89 Y100.31 E1.59069
G1 X101.30 Y99.34 E1.60117
G1 X101.80 Y99.28 E1.60422
G1 X102.10 Y98.94 E1.60700
G1 X102.10 Y92.05 E1.64900
G1 X101.73 Y91.69 E1.65214
G1 X101.30 Y91.72 E1.65473
G1 X99.18 Y92.17 E1.66798
G1 X99.12 Y92.19 E1.66837
G1 X97.10 Y93.09 E1.68183
G1 X97.04 Y93.12 E1.68225
G1 X95.26 Y94.42 E1.69565
G1 X93.74 Y96.10 E1.70948
G1 X93.70 Y96.15 E1.70986
G1 X93.53 Y96.45 E1.71201
G1 X93.66 Y96.93 E1.71504
G0 F21000 X99.88 Y100.31
G0 X102.09 Y98.93
G0 X102.90 Y98.91
G1 F5220 X103.11 Y99.22 E1.71732
G1 X104.42 Y99.72 E1.72586
G1 X104.95 Y100.31 E1.73071
G1 X105.37 Y100.38 E1.73331
G1 X111.35 Y96.93 E1.77543
G1 X111.47 Y96.43 E1.77858
G1 X111.24 Y96.07 E1.78116
G1 X109.74 Y94.42 E1.79475
G1 X107.90 Y93.09 E1.80862
G1 X105.88 Y92.19 E1.82207
G1 X105.82 Y92.17 E1.82246
G1 X103.67 Y91.71 E1.83590
G1 X103.25 Y91.71 E1.83843
G1 X102.90 Y92.06 E1.84146
G1 X102.90 Y98.91 E1.88325
G0 F21000 X102.92 Y92.07
G0 X103.25 Y90.92
G1 F5220 X103.72 Y90.92 E1.88609
G1 X106.10 Y91.42 E1.90095
G1 X108.32 Y92.41 E1.91579
G1 X110.29 Y93.84 E1.93061
G1 X111.92 Y95.65 E1.94548
G1 X112.15 Y96.06 E1.94832
G1 X112.63 Y96.19 E1.95135
G1 X119.31 Y92.33 E1.99835
G1 X119.44 Y91.85 E2.00138
G1 X118.78 Y90.71 E2.00942
G1 X118.74 Y90.66 E2.00980
G1 X115.97 Y87.58 E2.03505
G1 X115.93 Y87.54 E2.03543
G1 X112.52 Y85.08 E2.06105
G1 X108.74 Y83.39 E2.08630
G1 X108.68 Y83.37 E2.08668
G1 X104.63 Y82.51 E2.11192
G1 X103.25 Y82.51 E2.12034
G1 X102.90 Y82.86 E2.12337
G1 X102.90 Y90.57 E2.17037
G1 X103.25 Y90.92 E2.17340
G0 F21000 X107.95 Y93.12
G0 X109.78 Y94.46
G0 X113.03 Y96.88
G1 F5220 X112.91 Y97.36 E2.17643
G1 X113.14 Y97.76 E2.17926
G1 X113.89 Y100.08 E2.19413
G1 X114.15 Y102.50 E2.20896
G1 X113.89 Y104.92 E2.22380
G1 X113.14 Y107.24 E2.23867
G1 X112.90 Y107.64 E2.24150
G1 X113.03 Y108.12 E2.24453
G1 X119.71 Y111.97 E2.29154
G1 X120.19 Y111.85 E2.29457
G1 X120.88 Y110.64 E2.30299
G1 X122.17 Y106.65 E2.32860
G1 X122.60 Y102.53 E2.35385
G1 X122.60 Y102.47 E2.35423
G1 X122.15 Y98.29 E2.37986
G1 X120.84 Y94.29 E2.40554
G1 X120.19 Y93.15 E2.41351
G1 X119.71 Y93.03 E2.41654
G1 X113.03 Y96.88 E2.46355
G0 F21000 X112.22 Y97.75
G1 F5220 X111.74 Y97.62 E2.46659
G1 X105.78 Y101.07 E2.50860
G1 X105.62 Y101.44 E2.51105
G1 X105.88 Y102.50 E2.51771
G1 X105.62 Y103.56 E2.52437
G1 X105.78 Y103.93 E2.52682
G1 X111.74 Y107.37 E2.56883
G1 X112.22 Y107.24 E2.57187
G1 X112.42 Y106.88 E2.57438
G1 X113.11 Y104.79 E2.58783
G1 X113.35 Y102.53 E2.60166
G1 X113.35 Y102.47 E2.60205
G1 X113.11 Y100.21 E2.61589
G1 X112.40 Y98.06 E2.62971
G1 X112.22 Y97.75 E2.63184
G0 F21000 X111.75 Y97.64
G0 X105.79 Y101.08
G0 X105.79 Y103.92
G0 X105.37 Y104.62
G1 F5220 X104.95 Y104.69 E2.63445
G1 X104.42 Y105.28 E2.63930
G1 X103.11 Y105.78 E2.64783
G1 X102.90 Y106.09 E2.65011
G1 X102.90 Y112.94 E2.69191
G1 X103.25 Y113.29 E2.69494
G1 X103.67 Y113.29 E2.69747
G1 X105.82 Y112.83 E2.71091
G1 X105.88 Y112.81 E2.71130
G1 X107.95 Y111.88 E2.72513
G1 X109.74 Y110.58 E2.73858
G1 X111.26 Y108.90 E2.75241
G1 X111.29 Y108.85 E2.75279
G1 X111.47 Y108.55 E2.75494
G1 X111.34 Y108.07 E2.75797
G1 X105.37 Y104.62 E2.80003
G0 F21000 X104.23 Y104.45
G1 F5220 X105.10 Y102.64 E2.81228
G1 X105.10 Y102.36 E2.81396
G1 X104.23 Y100.55 E2.82621
G1 X104.01 Y100.38 E2.82787
G1 X102.06 Y99.93 E2.84012
G1 X101.79 Y100.00 E2.84179
G1 X100.22 Y101.25 E2.85404
G1 X100.10 Y101.50 E2.85571
G1 X100.10 Y103.50 E2.86795
G1 X100.22 Y103.75 E2.86962
G1 X101.79 Y105.00 E2.88187
G1 X102.06 Y105.06 E2.88354
G1 X104.01 Y104.62 E2.89579
G1 X104.23 Y104.45 E2.89745
G0 F21000 X102.10 Y106.06
G1 F5220 X101.80 Y105.72 E2.90023
G1 X101.30 Y105.66 E2.90328
G1 X99.89 Y104.68 E2.91377
G1 X99.54 Y104.67 E2.91588
G1 X93.66 Y108.07 E2.95730
G1 X93.53 Y108.54 E2.96032
G1 X93.70 Y108.85 E2.96246
G1 X93.74 Y108.90 E2.96284
G1 X95.26 Y110.58 E2.97669
G1 X97.10 Y111.91 E2.99052
G1 X99.12 Y112.81 E3.00397
G1 X99.18 Y112.83 E3.00435
G1 X101.40 Y113.29 E3.01818
G1 X101.75 Y113.29 E3.02032
G1 X102.10 Y112.94 E3.02336
G1 X102.10 Y106.06 E3.06531
G0 F21000 X102.08 Y112.93
G0 X101.76 Y114.09
G1 F5220 X101.26 Y114.08 E3.06834
G1 X98.90 Y113.58 E3.08303
G1 X96.65 Y112.57 E3.09808
G1 X94.71 Y111.15 E3.11273
G1 X93.08 Y109.35 E3.12757
G1 X92.85 Y108.94 E3.13042
G1 X92.36 Y108.81 E3.13345
G1 X85.69 Y112.67 E3.18046
G1 X85.56 Y113.15 E3.18349
G1 X86.22 Y114.29 E3.19153
G1 X86.26 Y114.34 E3.19191
G1 X89.03 Y117.42 E3.21715
G1 X89.07 Y117.46 E3.21753
G1 X92.48 Y119.92 E3.24316
G1 X96.26 Y121.61 E3.26840
G1 X96.32 Y121.62 E3.26879
G1 X100.43 Y122.49 E3.29441
G1 X101.75 Y122.49 E3.30245
G1 X102.10 Y122.14 E3.30548
G1 X102.10 Y114.44 E3.35247
G1 X101.76 Y114.09 E3.35545
G0 F21000 X102.90 Y114.43
G1 F5220 X102.90 Y122.14 E3.40246
G1 X103.25 Y122.49 E3.40549
G1 X104.63 Y122.49 E3.41391
G1 X108.68 Y121.62 E3.43914
G1 X108.74 Y121.61 E3.43953
G1 X112.58 Y119.89 E3.46516
G1 X115.93 Y117.46 E3.49040
G1 X115.97 Y117.42 E3.49078
G1 X118.74 Y114.34 E3.51602
G1 X118.78 Y114.29 E3.51640
G1 X119.44 Y113.15 E3.52444
G1 X119.31 Y112.67 E3.52747
G1 X112.63 Y108.81 E3.57448
G1 X112.15 Y108.94 E3.57751
G1 X111.92 Y109.35 E3.58035
G1 X110.27 Y111.17 E3.59540
G1 X108.32 Y112.59 E3.61004
G1 X106.10 Y113.58 E3.62488
G1 X103.72 Y114.08 E3.63974
G1 X103.25 Y114.08 E3.64258
G1 X102.90 Y114.43 E3.64560
G0 F21000 X103.30 Y114.60
;TYPE:WALL-OUTER
G1 F5220 X103.30 Y121.97 E3.69058
G1 X103.42 Y122.09 E3.69159
G1 X104.57 Y122.09 E3.69862
G1 X108.60 Y121.23 E3.72373
G1 X112.36 Y119.56 E3.74885
G1 X115.69 Y117.13 E3.77396
G1 X118.44 Y114.07 E3.79907
G1 X119.01 Y113.09 E3.80597
G1 X118.97 Y112.93 E3.80698
G1 X112.58 Y109.24 E3.85196
G1 X112.42 Y109.29 E3.85297
G1 X112.25 Y109.58 E3.85507
G1 X110.54 Y111.47 E3.87058
G1 X108.52 Y112.93 E3.88578
G1 X106.22 Y113.96 E3.90113
G1 X103.76 Y114.48 E3.91651
G1 X103.42 Y114.48 E3.91858
G1 X103.30 Y114.60 E3.91959
G0 F21000 X103.00 Y114.60
G0 X102.00 Y114.60
G0 X101.70 Y114.60
G1 F5220 X101.58 Y114.48 E3.92059
G1 X101.21 Y114.48 E3.92284
G1 X98.78 Y113.96 E3.93804
G1 X96.45 Y112.92 E3.95359
G1 X94.44 Y111.45 E3.96875
G1 X92.75 Y109.58 E3.98415
G1 X92.58 Y109.29 E3.98620
G1 X92.42 Y109.24 E3.98721
G1 X86.03 Y112.93 E4.03219
G1 X85.99 Y113.09 E4.03320
G1 X86.57 Y114.09 E4.04023
G1 X89.32 Y117.15 E4.06534
G1 X92.66 Y119.57 E4.09046
G1 X96.42 Y121.24 E4.11557
G1 X100.43 Y122.09 E4.14056
G1 X101.58 Y122.09 E4.14758
G1 X101.70 Y121.97 E4.14860
G1 X101.70 Y114.60 E4.19357
G0 F21000 X102.00 Y114.60
G0 X101.58 Y113.19
G0 X101.58 Y112.89
G1 F5220 X101.70 Y112.78 E4.19459
G1 X101.70 Y106.21 E4.23460
G1 X101.60 Y106.10 E4.23552
G1 X101.15 Y106.05 E4.23825
G1 X99.75 Y105.08 E4.24863
G1 X99.64 Y105.08 E4.24933
G1 X94.00 Y108.33 E4.28903
G1 X93.96 Y108.49 E4.29004
G1 X94.05 Y108.65 E4.29117
G1 X95.51 Y110.27 E4.30450
G1 X97.28 Y111.55 E4.31782
G1 X99.28 Y112.44 E4.33114
G1 X101.40 Y112.89 E4.34434
G1 X101.58 Y112.89 E4.34547
G0 F21000 X101.58 Y113.19
G0 X103.00 Y112.78
G0 X103.30 Y112.78
G1 F5220 X103.42 Y112.89 E4.34648
G1 X103.60 Y112.89 E4.34761
G1 X105.74 Y112.43 E4.36093
G1 X107.73 Y111.54 E4.37425
G1 X109.50 Y110.26 E4.38757
G1 X110.96 Y108.63 E4.40090
G1 X111.04 Y108.49 E4.40190
G1 X111.00 Y108.33 E4.40291
G1 X105.29 Y105.04 E4.44308
G1 X105.15 Y105.06 E4.44395
G1 X104.65 Y105.62 E4.44854
G1 X103.37 Y106.11 E4.45692
G1 X103.30 Y106.21 E4.45767
G1 X103.30 Y112.78 E4.49770
G0 F21000 X103.00 Y112.78
G0 X101.99 Y104.94
G0 X102.06 Y104.65
G1 F5220 X103.83 Y104.25 E4.50883
G1 X103.91 Y104.19 E4.50938
G1 X104.70 Y102.54 E4.52052
G1 X104.70 Y102.45 E4.52108
G1 X103.91 Y100.81 E4.53222
G1 X103.83 Y100.75 E4.53277
G1 X102.06 Y100.35 E4.54391
G1 X101.96 Y100.37 E4.54447
G1 X100.54 Y101.50 E4.55560
G1 X100.50 Y101.59 E4.55616
G1 X100.50 Y103.41 E4.56728
G1 X100.54 Y103.49 E4.56784
G1 X101.96 Y104.63 E4.57897
G1 X102.06 Y104.65 E4.57954
G0 F21000 X101.99 Y104.94
G0 X98.99 Y103.95
G0 X98.84 Y103.69
G1 F5220 X98.88 Y103.54 E4.58051
G1 X98.82 Y103.41 E4.58138
G1 X98.82 Y101.59 E4.59247
G1 X98.88 Y101.46 E4.59334
G1 X98.84 Y101.31 E4.59432
G1 X93.20 Y98.06 E4.63401
G1 X93.04 Y98.10 E4.63502
G1 X92.95 Y98.26 E4.63615
G1 X92.28 Y100.34 E4.64947
G1 X92.05 Y102.49 E4.66267
G1 X92.05 Y102.51 E4.66279
G1 X92.28 Y104.68 E4.67612
G1 X92.96 Y106.76 E4.68944
G1 X93.04 Y106.90 E4.69044
G1 X93.20 Y106.94 E4.69145
G1 X98.84 Y103.69 E4.73114
G0 F21000 X98.99 Y103.95
G0 X99.30 Y103.50
G0 X99.65 Y100.22
G0 X99.64 Y99.92
G1 F5220 X99.75 Y99.92 E4.73185
G1 X101.15 Y98.95 E4.74222
G1 X101.60 Y98.90 E4.74495
G1 X101.70 Y98.79 E4.74588
G1 X101.70 Y92.22 E4.78591
G1 X101.57 Y92.10 E4.78696
G1 X101.37 Y92.11 E4.78822
G1 X99.26 Y92.56 E4.80136
G1 X97.26 Y93.46 E4.81471
G1 X95.50 Y94.74 E4.82801
G1 X94.04 Y96.37 E4.84133
G1 X93.96 Y96.51 E4.84233
G1 X94.00 Y96.67 E4.84334
G1 X99.64 Y99.92 E4.88304
G0 F21000 X99.65 Y100.22
G0 X103.05 Y98.96
G0 X103.30 Y98.79
G1 F5220 X103.37 Y98.89 E4.88380
G1 X104.65 Y99.38 E4.89217
G1 X105.15 Y99.94 E4.89676
G1 X105.29 Y99.96 E4.89763
G1 X111.00 Y96.67 E4.93782
G1 X111.04 Y96.50 E4.93887
G1 X110.93 Y96.33 E4.94013
G1 X109.49 Y94.73 E4.95327
G1 X107.71 Y93.44 E4.96660
G1 X105.72 Y92.56 E4.97992
G1 X103.60 Y92.11 E4.99312
G1 X103.42 Y92.11 E4.99424
G1 X103.30 Y92.22 E4.99525
G1 X103.30 Y98.79 E5.03528
G0 F21000 X103.05 Y98.96
G0 X105.82 Y101.23
G0 X106.09 Y101.35
G1 F5220 X106.04 Y101.47 E5.03610
G1 X106.29 Y102.50 E5.04255
G1 X106.04 Y103.53 E5.04900
G1 X106.09 Y103.65 E5.04981
G1 X111.80 Y106.94 E5.09000
G1 X111.96 Y106.90 E5.09101
G1 X112.05 Y106.74 E5.09213
G1 X112.72 Y104.66 E5.10545
G1 X112.95 Y102.51 E5.11865
G1 X112.95 Y102.49 E5.11878
G1 X112.72 Y100.32 E5.13210
G1 X112.04 Y98.24 E5.14542
G1 X111.96 Y98.10 E5.14642
G1 X111.80 Y98.06 E5.14743
G1 X106.09 Y101.35 E5.18761
G0 F21000 X105.82 Y101.23
G0 X111.75 Y97.64
G0 X113.05 Y97.22
G0 X113.33 Y97.30
G1 F5220 X113.51 Y97.60 E5.18970
G1 X114.29 Y100.00 E5.20506
G1 X114.55 Y102.50 E5.22042
G1 X114.29 Y105.00 E5.23578
G1 X113.50 Y107.40 E5.25115
G1 X113.33 Y107.70 E5.25322
G1 X113.38 Y107.86 E5.25423
G1 X119.77 Y111.54 E5.29921
G1 X119.93 Y111.50 E5.30022
G1 X120.50 Y110.50 E5.30725
G1 X121.77 Y106.58 E5.33235
G1 X122.20 Y102.51 E5.35734
G1 X122.20 Y102.49 E5.35747
G1 X121.77 Y98.39 E5.38259
G1 X120.49 Y94.47 E5.40776
G1 X119.93 Y93.50 E5.41459
G1 X119.77 Y93.46 E5.41560
G1 X113.38 Y97.14 E5.46058
G1 X113.33 Y97.30 E5.46159
G0 F21000 X113.05 Y97.22
G0 X112.50 Y96.05
G0 X112.58 Y95.76
G1 F5220 X118.97 Y92.07 E5.50657
G1 X119.01 Y91.91 E5.50758
G1 X118.43 Y90.91 E5.51461
G1 X115.67 Y87.85 E5.53972
G1 X112.34 Y85.43 E5.56483
G1 X108.58 Y83.76 E5.58994
G1 X104.57 Y82.91 E5.61493
G1 X103.42 Y82.91 E5.62196
G1 X103.30 Y83.02 E5.62297
G1 X103.30 Y90.40 E5.66794
G1 X103.42 Y90.52 E5.66896
G1 X103.76 Y90.52 E5.67103
G1 X106.22 Y91.04 E5.68641
G1 X108.52 Y92.07 E5.70176
G1 X110.56 Y93.55 E5.71712
G1 X112.25 Y95.42 E5.73249
G1 X112.42 Y95.71 E5.73456
G1 X112.58 Y95.76 E5.73557
G0 F21000 X112.50 Y96.05
G0 X107.90 Y93.09
G0 X102.00 Y90.40
G0 X101.70 Y90.40
G1 F5220 X101.70 Y83.02 E5.78055
G1 X101.58 Y82.91 E5.78156
G1 X100.43 Y82.91 E5.78859
G1 X96.40 Y83.77 E5.81369
G1 X92.64 Y85.44 E5.83882
G1 X89.31 Y87.87 E5.86393
G1 X86.55 Y90.94 E5.88911
G1 X85.99 Y91.91 E5.89594
G1 X86.03 Y92.07 E5.89695
G1 X92.42 Y95.76 E5.94193
G1 X92.58 Y95.71 E5.94294
G1 X92.75 Y95.42 E5.94500
G1 X94.44 Y93.55 E5.96038
G1 X96.48 Y92.07 E5.97575
G1 X98.78 Y91.04 E5.99109
G1 X101.24 Y90.52 E6.00647
G1 X101.58 Y90.52 E6.00854
G1 X101.70 Y90.40 E6.00956
G0 F21000 X102.00 Y90.40
G0 X101.74 Y90.90
G0 X97.00 Y93.16
G0 X91.77 Y96.89
G0 X91.62 Y97.14
G1 F5220 X85.23 Y93.46 E6.05453
G1 X85.07 Y93.50 E6.05554
G1 X84.50 Y94.50 E6.06257
G1 X83.23 Y98.41 E6.08768
G1 X82.80 Y102.49 E6.11267
G1 X82.80 Y102.51 E6.11279
G1 X83.23 Y106.61 E6.13791
G1 X84.51 Y110.52 E6.16302
G1 X85.07 Y111.50 E6.16992
G1 X85.23 Y111.54 E6.17093
G1 X91.62 Y107.86 E6.21591
G1 X91.66 Y107.70 E6.21692
G1 X91.49 Y107.40 E6.21900
G1 X90.71 Y105.00 E6.23435
G1 X90.45 Y102.50 E6.24971
G1 X90.71 Y100.00 E6.26507
G1 X91.49 Y97.60 E6.28044
G1 X91.66 Y97.30 E6.28252
G1 X91.62 Y97.14 E6.28353
G0 F21000 X91.77 Y96.89
G0 X85.29 Y93.04
G0 X84.82 Y93.17
G0 X83.32 Y93.96
G0 X83.04 Y93.84
G1 F5220 X85.27 Y89.98 E6.31067
G1 X88.25 Y86.67 E6.33783
G1 X91.85 Y84.06 E6.36499
G1 X95.92 Y82.25 E6.39213
G1 X100.28 Y81.32 E6.41930
G1 X104.72 Y81.32 E6.44642
G1 X109.08 Y82.25 E6.47359
G1 X113.15 Y84.06 E6.50073
G1 X116.75 Y86.67 E6.52789
G1 X119.73 Y89.98 E6.55505
G1 X121.96 Y93.84 E6.58219
G1 X123.33 Y98.07 E6.60933
G1 X123.80 Y102.50 E6.63649
G1 X123.33 Y106.93 E6.66365
G1 X121.96 Y111.16 E6.69079
G1 X119.73 Y115.02 E6.71793
G1 X116.75 Y118.33 E6.74509
G1 X113.15 Y120.94 E6.77225
G1 X109.08 Y122.75 E6.79939
G1 X104.72 Y123.68 E6.82656
G1 X100.28 Y123.68 E6.85368
G1 X95.92 Y122.75 E6.88085
G1 X91.85 Y120.94 E6.90799
G1 X88.25 Y118.33 E6.93515
G1 X85.27 Y115.02 E6.96231
G1 X83.04 Y111.16 E6.98945
G1 X81.67 Y106.93 E7.01659
G1 X81.20 Y102.50 E7.04375
G1 X81.67 Y98.07 E7.07091
G1 X83.04 Y93.84 E7.09805
G0 F21000 X83.73 Y93.73
;TYPE:FILL
G1 F5220 X85.46 Y92.00 E7.11295
G0 F21000 X85.59 Y92.43
G1 F5220 X85.33 Y92.98 E7.11724
G1 X86.13 Y92.75 E7.12051
G1 X86.10 Y93.33 E7.12378
