;Generated with Cura_SteamEngine 13.06.4-dev
M109 S210     ;Heatup to 210C
G21           ;metric values
G90           ;absolute positioning
G28           ;Home
G1 Z15.0 F300 ;move the platform down 15mm
G92 E0        ;zero the extruded length
G1 F200 E5    ;extrude 5mm of feed stock
G92 E0        ;zero the extruded length again

;total_layers=199
;LAYER:0
M107
G0 F48000 X89.31 Y88.93 Z0.30
;TYPE:SKIRT
G1 F12000 X92.95 Y85.30 E0.09398
G1 X118.06 Y85.30 E0.55342
G1 X121.69 Y88.93 E0.64737
G1 X121.69 Y114.07 E1.10723
G1 X118.06 Y117.70 E1.20118
G1 X107.20 Y117.70 E1.39992
G1 X105.98 Y118.35 E1.42512
G1 X105.42 Y118.58 E1.43627
G1 X102.96 Y119.33 E1.48326
G1 X102.36 Y119.45 E1.49442
G1 X99.80 Y119.70 E1.54147
G1 X99.19 Y119.70 E1.55268
G1 X96.62 Y119.44 E1.59999
G1 X96.02 Y119.32 E1.61114
G1 X93.56 Y118.58 E1.65807
G1 X93.00 Y118.34 E1.66915
G1 X90.75 Y117.14 E1.71588
G1 X90.24 Y116.80 E1.72707
G1 X88.26 Y115.17 E1.77411
G1 X87.82 Y114.73 E1.78529
G1 X86.19 Y112.74 E1.83252
G1 X85.85 Y112.23 E1.84359
G1 X84.65 Y109.98 E1.89030
G1 X84.42 Y109.42 E1.90145
G1 X83.67 Y106.96 E1.94842
G1 X83.55 Y106.36 E1.95956
G1 X83.30 Y103.80 E2.00662
G1 X83.30 Y103.19 E2.01787
G1 X83.56 Y100.62 E2.06517
G1 X83.68 Y100.02 E2.07622
G1 X84.42 Y97.58 E2.12292
G1 X84.65 Y97.02 E2.13405
G1 X85.86 Y94.75 E2.18107
G1 X86.20 Y94.24 E2.19224
G1 X87.83 Y92.26 E2.23922
G1 X88.26 Y91.83 E2.25035
G1 X89.32 Y90.96 E2.27532
G1 X89.31 Y88.93 E2.31245
G1 F2700 E2.30845
G0 F48000 X96.11 Y92.10
;TYPE:WALL-INNER
G1 F2700 E2.31245
G1 F12000 X114.89 Y92.10 E2.65597
G1 X114.89 Y110.90 E2.99990
G1 X105.33 Y110.90 E3.17473
G1 X105.14 Y110.97 E3.17849
G1 X104.71 Y111.32 E3.18866
G1 X103.10 Y112.18 E3.22214
G1 X101.33 Y112.72 E3.25581
G1 X99.50 Y112.90 E3.28952
G1 X97.65 Y112.71 E3.32348
G1 X95.89 Y112.18 E3.35718
G1 X94.28 Y111.32 E3.39058
G1 X92.86 Y110.14 E3.42437
G1 X91.68 Y108.71 E3.45824
G1 X90.82 Y107.10 E3.49173
G1 X90.28 Y105.33 E3.52539
G1 X90.10 Y103.50 E3.55911
G1 X90.29 Y101.65 E3.59310
G1 X90.82 Y99.90 E3.62652
G1 X91.69 Y98.28 E3.66018
G1 X92.86 Y96.86 E3.69392
G1 X94.28 Y95.68 E3.72766
G1 X95.94 Y94.79 E3.76217
G1 X96.12 Y94.51 E3.76823
G1 X96.11 Y92.10 E3.81234
G0 F48000 X95.71 Y91.70
;TYPE:WALL-OUTER
G1 F12000 X115.29 Y91.70 E4.17049
G1 X115.29 Y111.30 E4.52906
G1 X105.40 Y111.30 E4.70994
G1 X105.34 Y111.32 E4.71120
G1 X104.93 Y111.66 E4.72081
G1 X103.25 Y112.56 E4.75569
G1 X101.42 Y113.11 E4.79078
G1 X99.50 Y113.30 E4.82598
G1 X97.57 Y113.11 E4.86143
G1 X95.74 Y112.55 E4.89650
G1 X94.06 Y111.65 E4.93132
G1 X92.57 Y110.43 E4.96653
G1 X91.35 Y108.93 E5.00199
G1 X90.45 Y107.25 E5.03681
G1 X89.89 Y105.42 E5.07190
G1 X89.70 Y103.50 E5.10709
G1 X89.89 Y101.57 E5.14255
G1 X90.45 Y99.75 E5.17740
G1 X91.35 Y98.06 E5.21246
G1 X92.57 Y96.57 E5.24767
G1 X94.06 Y95.35 E5.28289
G1 X95.66 Y94.49 E5.31605
G1 X95.72 Y94.40 E5.31807
G1 X95.71 Y91.70 E5.36746
G0 F48000 X96.36 Y92.24
;TYPE:FILL
G1 F12000 X114.75 Y110.62 E5.84311
G0 F48000 X114.32 Y110.76
G1 F12000 X96.25 Y92.69 E6.31052
G0 F48000 X96.25 Y93.26
G1 F12000 X113.75 Y110.76 E6.76329
G0 F48000 X113.19 Y110.76
G1 F12000 X96.25 Y93.82 E7.20140
G0 F48000 X96.25 Y94.39
G1 F12000 X112.62 Y110.76 E7.62488
G0 F48000 X112.06 Y110.76
G1 F12000 X96.10 Y94.80 E8.03767
G0 F48000 X95.77 Y95.04
G1 F12000 X111.49 Y110.76 E8.44428
G0 F48000 X110.93 Y110.76
G1 F12000 X95.41 Y95.24 E8.84579
G0 F48000 X95.04 Y95.44
G1 F12000 X110.36 Y110.76 E9.24219
G0 F48000 X109.79 Y110.76
G1 F12000 X94.67 Y95.64 E9.63349
G0 F48000 X94.31 Y95.84
G1 F12000 X109.23 Y110.76 E10.01942
G0 F48000 X108.66 Y110.76
G1 F12000 X94.00 Y96.10 E10.39876
G0 F48000 X93.69 Y96.35
G1 F12000 X108.10 Y110.76 E10.77151
G0 F48000 X107.53 Y110.76
G1 F12000 X93.38 Y96.61 E11.13764
G0 F48000 X93.07 Y96.86
G1 F12000 X106.97 Y110.76 E11.49721
G0 F48000 X106.40 Y110.76
G1 F12000 X92.79 Y97.15 E11.84926
G0 F48000 X92.54 Y97.46
G1 F12000 X105.83 Y110.76 E12.19327
G0 F48000 X105.28 Y110.77
G1 F12000 X92.28 Y97.77 E12.52951
G0 F48000 X92.03 Y98.08
G1 F12000 X104.91 Y110.97 E12.86291
G0 F48000 X104.60 Y111.22
G1 F12000 X91.78 Y98.40 E13.19455
G0 F48000 X91.58 Y98.77
G1 F12000 X104.23 Y111.42 E13.52172
G0 F48000 X103.86 Y111.61
G1 F12000 X91.38 Y99.14 E13.84446
G0 F48000 X91.19 Y99.51
G1 F12000 X103.49 Y111.81 E14.16279
G0 F48000 X103.12 Y112.01
G1 F12000 X90.99 Y99.88 E14.47669
G0 F48000 X90.84 Y100.29
G1 F12000 X102.70 Y112.15 E14.78349
G0 F48000 X102.27 Y112.29
G1 F12000 X90.71 Y100.73 E15.08248
G0 F48000 X90.58 Y101.16
G1 F12000 X101.83 Y112.42 E15.37363
G0 F48000 X101.40 Y112.55
G1 F12000 X90.45 Y101.60 E15.65698
G0 F48000 X90.38 Y102.10
G1 F12000 X100.90 Y112.62 E15.92920
G0 F48000 X100.39 Y112.67
G1 F12000 X90.33 Y102.61 E16.18939
G0 F48000 X90.28 Y103.12
G1 F12000 X99.87 Y112.72 E16.43761
G0 F48000 X99.33 Y112.74
G1 F12000 X90.26 Y103.67 E16.67223
G0 F48000 X90.32 Y104.30
G1 F12000 X98.70 Y112.68 E16.88902
G0 F48000 X98.07 Y112.61
G1 F12000 X90.38 Y104.93 E17.08791
G0 F48000 X90.52 Y105.63
G1 F12000 X97.37 Y112.48 E17.26523
G0 F48000 X96.56 Y112.23
G1 F12000 X90.76 Y106.44 E17.41515
G0 F48000 X91.11 Y107.35
G1 F12000 X95.65 Y111.89 E17.53245
G0 F48000 X94.43 Y111.23
G1 F12000 X91.77 Y108.57 E17.60133
G0 F48000 X96.93 Y92.24
G1 F12000 X114.75 Y110.06 E18.06235
G0 F48000 X114.75 Y109.49
G1 F12000 X97.50 Y92.24 E18.50874
G0 F48000 X98.06 Y92.24
G1 F12000 X114.75 Y108.93 E18.94049
G0 F48000 X114.75 Y108.36
G1 F12000 X98.63 Y92.24 E19.35760
G0 F48000 X99.19 Y92.24
G1 F12000 X114.75 Y107.80 E19.76009
G0 F48000 X114.75 Y107.23
G1 F12000 X99.76 Y92.24 E20.14793
G0 F48000 X100.32 Y92.24
G1 F12000 X114.75 Y106.67 E20.52113
G0 F48000 X114.75 Y106.10
G1 F12000 X100.89 Y92.24 E20.87970
G0 F48000 X101.46 Y92.24
G1 F12000 X114.75 Y105.53 E21.22364
G0 F48000 X114.75 Y104.97
G1 F12000 X102.02 Y92.24 E21.55294
G0 F48000 X102.59 Y92.24
G1 F12000 X114.75 Y104.40 E21.86763
G0 F48000 X114.75 Y103.84
G1 F12000 X103.15 Y92.24 E22.16768
G0 F48000 X103.72 Y92.24
G1 F12000 X114.75 Y103.27 E22.45310
G0 F48000 X114.75 Y102.71
G1 F12000 X104.28 Y92.24 E22.72389
G0 F48000 X104.85 Y92.24
G1 F12000 X114.75 Y102.14 E22.98004
G0 F48000 X114.75 Y101.57
G1 F12000 X105.42 Y92.24 E23.22156
G0 F48000 X105.98 Y92.24
G1 F12000 X114.75 Y101.01 E23.44844
G0 F48000 X114.75 Y100.44
G1 F12000 X106.55 Y92.24 E23.66069
G0 F48000 X107.11 Y92.24
G1 F12000 X114.75 Y99.88 E23.85830
G0 F48000 X114.75 Y99.31
G1 F12000 X107.68 Y92.24 E24.04129
G0 F48000 X108.24 Y92.24
G1 F12000 X114.75 Y98.75 E24.20963
G0 F48000 X114.75 Y98.18
G1 F12000 X108.81 Y92.24 E24.36335
G0 F48000 X109.38 Y92.24
G1 F12000 X114.75 Y97.62 E24.50246
G0 F48000 X114.75 Y97.05
G1 F12000 X109.94 Y92.24 E24.62693
G0 F48000 X110.51 Y92.24
G1 F12000 X114.75 Y96.48 E24.73675
G0 F48000 X114.75 Y95.92
G1 F12000 X111.07 Y92.24 E24.83194
G0 F48000 X111.64 Y92.24
G1 F12000 X114.75 Y95.35 E24.91250
G0 F48000 X114.75 Y94.79
G1 F12000 X112.20 Y92.24 E24.97842
G0 F48000 X112.77 Y92.24
G1 F12000 X114.75 Y94.22 E25.02970
G0 F48000 X114.75 Y93.66
G1 F12000 X113.33 Y92.24 E25.06635
G0 F48000 X113.90 Y92.24
G1 F12000 X114.75 Y93.09 E25.08837
G0 F48000 X114.75 Y92.52
G1 F12000 X114.47 Y92.24 E25.09574
;LAYER:1
G0 F39000 X114.89 Y92.10 Z0.40
;TYPE:WALL-INNER
G1 F9720 X114.89 Y110.90 E25.21039
G1 X105.34 Y110.90 E25.26862
G1 X105.14 Y110.97 E25.26988
G1 X104.70 Y111.32 E25.27333
G1 X103.10 Y112.18 E25.28443
G1 X101.33 Y112.72 E25.29565
G1 X99.50 Y112.90 E25.30690
G1 X97.67 Y112.72 E25.31811
G1 X95.88 Y112.17 E25.32951
G1 X94.28 Y111.32 E25.34057
G1 X92.86 Y110.14 E25.35182
G1 X91.68 Y108.70 E25.36321
G1 X90.82 Y107.10 E25.37429
G1 X90.28 Y105.33 E25.38551
G1 X90.10 Y103.50 E25.39675
G1 X90.28 Y101.67 E25.40799
G1 X90.82 Y99.90 E25.41922
G1 X91.69 Y98.28 E25.43044
G1 X92.86 Y96.86 E25.44169
G1 X94.28 Y95.68 E25.45294
G1 X95.96 Y94.79 E25.46451
G1 X96.13 Y94.51 E25.46653
G1 X96.13 Y92.10 E25.48120
G1 X114.89 Y92.10 E25.59560
G0 F39000 X115.29 Y91.70
;TYPE:WALL-OUTER
G1 F9720 X115.29 Y111.30 E25.71513
G1 X105.40 Y111.30 E25.77539
G1 X105.34 Y111.32 E25.77580
G1 X104.92 Y111.66 E25.77909
G1 X103.25 Y112.56 E25.79063
G1 X101.42 Y113.11 E25.80233
G1 X99.50 Y113.30 E25.81407
G1 X97.59 Y113.11 E25.82578
G1 X95.73 Y112.54 E25.83764
G1 X94.06 Y111.65 E25.84918
G1 X92.57 Y110.43 E25.86091
G1 X91.34 Y108.92 E25.87280
G1 X90.45 Y107.25 E25.88434
G1 X89.89 Y105.42 E25.89604
G1 X89.70 Y103.50 E25.90777
G1 X89.89 Y101.59 E25.91950
G1 X90.45 Y99.75 E25.93121
G1 X91.35 Y98.06 E25.94289
G1 X92.57 Y96.57 E25.95463
G1 X94.06 Y95.35 E25.96637
G1 X95.67 Y94.49 E25.97749
G1 X95.73 Y94.39 E25.97817
G1 X95.73 Y91.70 E25.99460
G1 X115.29 Y91.70 E26.11388
G0 F39000 X114.75 Y92.34
;TYPE:FILL
G1 F9720 X95.35 Y111.73 E26.28110
G0 F39000 X94.99 Y111.53
G1 F9720 X114.28 Y92.24 E26.44749
G0 F39000 X113.71 Y92.24
G1 F9720 X94.62 Y111.34 E26.61218
G0 F39000 X94.27 Y111.12
G1 F9720 X113.15 Y92.24 E26.77501
G0 F39000 X112.58 Y92.24
G1 F9720 X93.96 Y110.87 E26.93564
G0 F39000 X93.64 Y110.61
G1 F9720 X112.02 Y92.24 E27.09408
G0 F39000 X111.45 Y92.24
G1 F9720 X93.33 Y110.36 E27.25031
G0 F39000 X93.02 Y110.10
G1 F9720 X110.89 Y92.24 E27.40435
G0 F39000 X110.32 Y92.24
G1 F9720 X92.76 Y109.80 E27.55580
G0 F39000 X92.50 Y109.49
G1 F9720 X109.75 Y92.24 E27.70455
G0 F39000 X109.19 Y92.24
G1 F9720 X92.25 Y109.18 E27.85063
G0 F39000 X92.00 Y108.87
G1 F9720 X108.62 Y92.24 E27.99401
G0 F39000 X108.06 Y92.24
G1 F9720 X91.75 Y108.54 E28.13462
G0 F39000 X91.56 Y108.18
G1 F9720 X107.49 Y92.24 E28.27206
G0 F39000 X106.93 Y92.24
G1 F9720 X91.36 Y107.81 E28.40631
G0 F39000 X91.16 Y107.44
G1 F9720 X106.36 Y92.24 E28.53739
G0 F39000 X105.79 Y92.24
G1 F9720 X90.96 Y107.07 E28.66530
G0 F39000 X90.83 Y106.64
G1 F9720 X105.23 Y92.24 E28.78950
G0 F39000 X104.66 Y92.24
G1 F9720 X90.69 Y106.21 E28.90996
G0 F39000 X90.56 Y105.77
G1 F9720 X104.10 Y92.24 E29.02667
G0 F39000 X103.53 Y92.24
G1 F9720 X90.43 Y105.34 E29.13965
G0 F39000 X90.37 Y104.83
G1 F9720 X102.97 Y92.24 E29.24824
G0 F39000 X102.40 Y92.24
G1 F9720 X90.32 Y104.32 E29.35240
G0 F39000 X90.27 Y103.80
G1 F9720 X101.83 Y92.24 E29.45211
G0 F39000 X101.27 Y92.24
G1 F9720 X90.27 Y103.24 E29.54699
G0 F39000 X90.33 Y102.61
G1 F9720 X100.70 Y92.24 E29.63645
G0 F39000 X100.14 Y92.24
G1 F9720 X90.39 Y101.99 E29.72050
G0 F39000 X90.55 Y101.26
G1 F9720 X99.57 Y92.24 E29.79829
G0 F39000 X99.01 Y92.24
G1 F9720 X90.80 Y100.45 E29.86907
G0 F39000 X91.20 Y99.48
G1 F9720 X95.48 Y95.20 E29.90595
G0 F39000 X96.27 Y94.42
G1 F9720 X98.44 Y92.24 E29.92471
G0 F39000 X97.88 Y92.24
G1 F9720 X96.27 Y93.85 E29.93859
G0 F39000 X96.26 Y93.28
G1 F9720 X97.31 Y92.24 E29.94760
G0 F39000 X96.74 Y92.24
G1 F9720 X96.26 Y92.72 E29.95174
G0 F39000 X95.95 Y94.79
G0 X94.10 Y96.01
G1 F9720 X92.02 Y98.10 E29.96972
G0 F39000 X95.72 Y111.93
G1 F9720 X114.75 Y92.91 E30.13375
G0 F39000 X114.75 Y93.47
G1 F9720 X96.12 Y112.10 E30.29437
G0 F39000 X96.55 Y112.23
G1 F9720 X114.75 Y94.04 E30.45125
G0 F39000 X114.75 Y94.60
G1 F9720 X96.99 Y112.36 E30.60439
G0 F39000 X97.42 Y112.49
G1 F9720 X114.75 Y95.17 E30.75380
G0 F39000 X114.75 Y95.73
G1 F9720 X97.88 Y112.60 E30.89922
G0 F39000 X98.40 Y112.65
G1 F9720 X114.75 Y96.30 E31.04020
G0 F39000 X114.75 Y96.86
G1 F9720 X98.91 Y112.70 E31.17674
G0 F39000 X99.43 Y112.75
G1 F9720 X114.75 Y97.43 E31.30883
G0 F39000 X114.75 Y98.00
G1 F9720 X100.04 Y112.70 E31.43565
G0 F39000 X100.67 Y112.64
G1 F9720 X114.75 Y98.56 E31.55706
G0 F39000 X114.75 Y99.13
G1 F9720 X101.29 Y112.58 E31.67307
G0 F39000 X102.10 Y112.34
G1 F9720 X114.75 Y99.69 E31.78210
G0 F39000 X114.75 Y100.26
G1 F9720 X102.91 Y112.09 E31.88413
G0 F39000 X104.07 Y111.50
G1 F9720 X114.75 Y100.83 E31.97621
G0 F39000 X114.75 Y101.39
G1 F9720 X105.38 Y110.76 E32.05701
G0 F39000 X105.94 Y110.76
G1 F9720 X114.75 Y101.96 E32.13293
G0 F39000 X114.75 Y102.52
G1 F9720 X106.51 Y110.76 E32.20397
G0 F39000 X107.07 Y110.76
G1 F9720 X114.75 Y103.09 E32.27013
G0 F39000 X114.75 Y103.65
G1 F9720 X107.64 Y110.76 E32.33142
G0 F39000 X108.20 Y110.76
G1 F9720 X114.75 Y104.22 E32.38783
G0 F39000 X114.74 Y104.79
G1 F9720 X108.77 Y110.76 E32.43936
G0 F39000 X109.33 Y110.76
G1 F9720 X114.74 Y105.35 E32.48600
G0 F39000 X114.74 Y105.92
G1 F9720 X109.90 Y110.76 E32.52776
G0 F39000 X110.47 Y110.76
G1 F9720 X114.74 Y106.48 E32.56465
G0 F39000 X114.74 Y107.05
G1 F9720 X111.03 Y110.76 E32.59666
G0 F39000 X111.60 Y110.76
G1 F9720 X114.74 Y107.61 E32.62379
G0 F39000 X114.74 Y108.18
G1 F9720 X112.16 Y110.76 E32.64605
G0 F39000 X112.73 Y110.76
G1 F9720 X114.74 Y108.75 E32.66342
G0 F39000 X114.74 Y109.31
G1 F9720 X113.29 Y110.76 E32.67592
G0 F39000 X113.86 Y110.76
G1 F9720 X114.74 Y109.88 E32.68353
G0 F39000 X114.74 Y110.44
G1 F9720 X114.43 Y110.76 E32.68628
;LAYER:2
M106 S255
G0 F30000 X114.88 Y110.90 Z0.50
;TYPE:WALL-INNER
G1 F7500 X105.33 Y110.90 E32.74449
G1 X105.14 Y110.97 E32.74576
G1 X104.72 Y111.31 E32.74905
G1 X103.10 Y112.18 E32.76029
G1 X101.33 Y112.72 E32.77151
G1 X99.50 Y112.90 E32.78276
G1 X97.67 Y112.72 E32.79399
G1 X95.90 Y112.18 E32.80522
G1 X94.28 Y111.32 E32.81644
G1 X92.86 Y110.14 E32.82768
G1 X91.69 Y108.72 E32.83894
G1 X90.82 Y107.10 E32.85016
G1 X90.28 Y105.33 E32.86138
G1 X90.10 Y103.50 E32.87262
G1 X90.28 Y101.67 E32.88386
G1 X90.82 Y99.90 E32.89509
G1 X91.69 Y98.28 E32.90631
G1 X92.86 Y96.86 E32.91756
G1 X94.28 Y95.68 E32.92880
G1 X95.97 Y94.78 E32.94045
G1 X96.14 Y94.50 E32.94248
G1 X96.14 Y92.10 E32.95711
G1 X114.88 Y92.10 E33.07141
G1 X114.88 Y110.90 E33.18606
G0 F30000 X115.28 Y111.30
;TYPE:WALL-OUTER
G1 F7500 X105.40 Y111.30 E33.24629
G1 X105.34 Y111.32 E33.24671
G1 X104.94 Y111.65 E33.24983
G1 X103.25 Y112.56 E33.26154
G1 X101.42 Y113.11 E33.27324
G1 X99.50 Y113.30 E33.28497
G1 X97.59 Y113.11 E33.29670
G1 X95.75 Y112.56 E33.30840
G1 X94.06 Y111.65 E33.32009
G1 X92.57 Y110.43 E33.33183
G1 X91.35 Y108.94 E33.34356
G1 X90.45 Y107.25 E33.35525
G1 X89.89 Y105.42 E33.36695
G1 X89.70 Y103.50 E33.37868
G1 X89.89 Y101.59 E33.39041
G1 X90.45 Y99.75 E33.40212
G1 X91.35 Y98.06 E33.41380
G1 X92.57 Y96.57 E33.42554
G1 X94.06 Y95.35 E33.43728
G1 X95.68 Y94.48 E33.44848
G1 X95.74 Y94.39 E33.44916
G1 X95.74 Y91.70 E33.46555
G1 X115.28 Y91.70 E33.58474
G1 X115.28 Y111.30 E33.70426
G0 F30000 X114.74 Y110.61
;TYPE:FILL
G1 F7500 X96.36 Y92.24 E33.86272
G0 F30000 X96.28 Y92.71
G1 F7500 X114.32 Y110.76 E34.01833
G0 F30000 X113.75 Y110.76
G1 F7500 X96.28 Y93.28 E34.16905
G0 F30000 X96.28 Y93.85
G1 F7500 X113.19 Y110.76 E34.31490
G0 F30000 X112.62 Y110.76
G1 F7500 X96.28 Y94.41 E34.45586
G0 F30000 X96.11 Y94.81
G1 F7500 X112.06 Y110.76 E34.59338
G0 F30000 X111.49 Y110.76
G1 F7500 X95.78 Y95.04 E34.72891
G0 F30000 X95.41 Y95.24
G1 F7500 X110.93 Y110.76 E34.86274
G0 F30000 X110.36 Y110.76
G1 F7500 X95.04 Y95.44 E34.99487
G0 F30000 X94.67 Y95.64
G1 F7500 X109.79 Y110.76 E35.12530
G0 F30000 X109.23 Y110.76
G1 F7500 X94.31 Y95.84 E35.25394
G0 F30000 X94.00 Y96.10
G1 F7500 X108.66 Y110.76 E35.38038
G0 F30000 X108.10 Y110.76
G1 F7500 X93.69 Y96.35 E35.50462
G0 F30000 X93.38 Y96.61
G1 F7500 X107.53 Y110.76 E35.62666
G0 F30000 X106.96 Y110.76
G1 F7500 X93.07 Y96.86 E35.74650
G0 F30000 X92.79 Y97.15
G1 F7500 X106.40 Y110.76 E35.86385
G0 F30000 X105.83 Y110.76
G1 F7500 X92.54 Y97.46 E35.97851
G0 F30000 X92.28 Y97.77
G1 F7500 X105.28 Y110.77 E36.09059
G0 F30000 X104.91 Y110.97
G1 F7500 X92.03 Y98.08 E36.20173
G0 F30000 X91.78 Y98.40
G1 F7500 X104.60 Y111.22 E36.31228
G0 F30000 X104.23 Y111.42
G1 F7500 X91.58 Y98.77 E36.42134
G0 F30000 X91.38 Y99.14
G1 F7500 X103.86 Y111.61 E36.52893
G0 F30000 X103.49 Y111.81
G1 F7500 X91.19 Y99.51 E36.63504
G0 F30000 X90.99 Y99.88
G1 F7500 X103.12 Y112.01 E36.73968
G0 F30000 X102.70 Y112.15
G1 F7500 X90.84 Y100.29 E36.84194
G0 F30000 X90.71 Y100.73
G1 F7500 X102.27 Y112.29 E36.94161
G0 F30000 X101.83 Y112.42
G1 F7500 X90.58 Y101.16 E37.03866
G0 F30000 X90.45 Y101.60
G1 F7500 X101.40 Y112.55 E37.13311
G0 F30000 X100.90 Y112.62
G1 F7500 X90.38 Y102.09 E37.22386
G0 F30000 X90.33 Y102.61
G1 F7500 X100.39 Y112.67 E37.31061
G0 F30000 X99.87 Y112.72
G1 F7500 X90.28 Y103.12 E37.39335
G0 F30000 X90.26 Y103.67
G1 F7500 X99.33 Y112.74 E37.47155
G0 F30000 X98.70 Y112.68
G1 F7500 X90.32 Y104.30 E37.54381
G0 F30000 X90.38 Y104.93
